storage/app/icons/phosphoricons/duotone/chat-centered-dots-duotone.svg

<svg xmlns="http://www.w3.org/2000/svg" fill="currentColor" viewBox="0 0 256 256"><path d="M224 56v128a8 8 0 0 1-8 8h-65.07l-16 28a8 8 0 0 1-13.9 0l-16-28H40a8 8 0 0 1-8-8V56a8 8 0 0 1 8-8h176a8 8 0 0 1 8 8" opacity=".2"/><path d="M116 120a12 12 0 1 1 12 12 12 12 0 0 1-12-12m-32 12a12 12 0 1 0-12-12 12 12 0 0 0 12 12m88 0a12 12 0 1 0-12-12 12 12 0 0 0 12 12m60-76v128a16 16 0 0 1-16 16h-60.43l-13.68 23.94a16 16 0 0 1-27.78 0L100.43 200H40a16 16 0 0 1-16-16V56a16 16 0 0 1 16-16h176a16 16 0 0 1 16 16m-16 0H40v128h65.07a8 8 0 0 1 7 4l16 28 16-28a8 8 0 0 1 7-4H216Z"/></svg>

<svg xmlns="http://www.w3.org/2000/svg" viewBox="0 0 256 256" fill="currentColor"><path d="M224,56V184a8,8,0,0,1-8,8H150.93l-16,28a8,8,0,0,1-13.9,0l-16-28H40a8,8,0,0,1-8-8V56a8,8,0,0,1,8-8H216A8,8,0,0,1,224,56Z" opacity="0.2"/><path d="M116,120a12,12,0,1,1,12,12A12,12,0,0,1,116,120ZM84,132a12,12,0,1,0-12-12A12,12,0,0,0,84,132Zm88,0a12,12,0,1,0-12-12A12,12,0,0,0,172,132Zm60-76V184a16,16,0,0,1-16,16H155.57l-13.68,23.94a16,16,0,0,1-27.78,0L100.43,200H40a16,16,0,0,1-16-16V56A16,16,0,0,1,40,40H216A16,16,0,0,1,232,56Zm-16,0H40V184h65.07a8,8,0,0,1,7,4l16,28,16-28a8,8,0,0,1,7-4H216Z"/></svg>
